X:1
T:The Harp and the Shamrock
L:1/8
Q:1/4=120
M:4/4
K:G
|: g^f |[M:4/4]"C" edBc"G" dBGB |"Em" AGEF"D" GA(3B3/2c3/2d3/2 |"C" e2 ed"G" efge | "Bm" dB"A"AG"D" A2 BA |
"Em" GEED"C" E2 DE |"G" GA (3B3/2A3/2G3/2"D" A2 gf |"C" eage"G" dBGB |"D" AGGF"G" G2 :|
(3B3/2c3/2d3/2 |[M:4/4]"C" e2 ed"G" efgf | "Em" eddB"D" d2 BA |"G" GABG"A" cdec |
"B" dBAG"C" (3A3/2B3/2c3/2"D" BA |"E" GEED"Bm" D3 E | "G" GA(3B3/2A3/2G3/2"D" A2 gf |"C" eage"G" dBGB |"D" AGGF"G" G2 :| 


